!!!!SEGMENT: pl-kk--kk-i-7--108_anonim--christe-sanctorum.krn
!!!cenid: 16xx:947
!!!COM: Anonim
!!!COM-rismID: pe30004985
!!!CDT:
!!!CNT:
!!!OTL: Christe sanctorum
!!!PDT:
!!!AGN: Sacred
!!!SMS-siglum: PL-Kk
!!!SMS-shelfmark: Kk.I.7
!!!SMS-shelfwork: 108 W
!!!SMS-variant:
!!!SMS-altvar:
!!!NIFC-rismSourceID: 300258077
!!!NIFC-rismChildID: 300258185
!!!NIFC-islandoraID: pl-kk:1956
!!!URL-pdf-islandora: https://repozytorium.nifc.pl/islandora/object/pl-kk%3A1956/datastream/PDF/view
!!!URL-scan: https://polish.musicsources.pl/pl/lokalizacje/galeria/rekopisy/6140 @EN{Scan on Polish Music Sources Website} @PL{Skany w portalu Dziedzictwo Muzyki Polskiej w otwartym dostępie}
!!!ONB-nifc: UWAGA: C (skan 0081, s.154 ), A (0159, s.138), T(0246, s.154), B(0333, s.150). Następny utwór: Ave mundi spes Maria
!!!AIN: 1 alto 1 bass 1 soprn 1 tenor
!!!key:
**kern	**text	**text	**text	**text	**text	**text	**kern	**text	**text	**text	**text	**text	**text	**kern	**text	**text	**text	**text	**text	**text	**kern	**text	**text	**text	**text	**text	**text
*part4	*part4	*part4	*part4	*part4	*part4	*part4	*part3	*part3	*part3	*part3	*part3	*part3	*part3	*part2	*part2	*part2	*part2	*part2	*part2	*part2	*part1	*part1	*part1	*part1	*part1	*part1	*part1
*staff4	*staff4	*staff4	*staff4	*staff4	*staff4	*staff4	*staff3	*staff3	*staff3	*staff3	*staff3	*staff3	*staff3	*staff2	*staff2	*staff2	*staff2	*staff2	*staff2	*staff2	*staff1	*staff1	*staff1	*staff1	*staff1	*staff1	*staff1
*group1	*	*	*	*	*	*	*group1	*	*	*	*	*	*	*group1	*	*	*	*	*	*	*group1	*	*	*	*	*	*
*	*verse1	*verse2	*verse3	*verse4	*verse5	*verse6	*	*verse1	*verse2	*verse3	*verse4	*verse5	*verse6	*	*verse1	*verse2	*verse3	*verse4	*verse5	*verse6	*	*verse1	*verse2	*verse3	*verse4	*verse5	*verse6
*Ibass	*	*	*	*	*	*	*Itenor	*	*	*	*	*	*	*Ialto	*	*	*	*	*	*	*Isoprn	*	*	*	*	*	*
*I"BASSVS.	*	*	*	*	*	*	*I"TENOR.	*	*	*	*	*	*	*I"ALTVS.	*	*	*	*	*	*	*I"CANTVS.	*	*	*	*	*	*
*I'B	*	*	*	*	*	*	*I'T	*	*	*	*	*	*	*I'A	*	*	*	*	*	*	*I'S	*	*	*	*	*	*
*clefF4	*	*	*	*	*	*	*clefC4	*	*	*	*	*	*	*clefC3	*	*	*	*	*	*	*clefC1	*	*	*	*	*	*
*k[b-]	*	*	*	*	*	*	*k[b-]	*	*	*	*	*	*	*k[b-]	*	*	*	*	*	*	*k[b-]	*	*	*	*	*	*
*F:	*	*	*	*	*	*	*F:	*	*	*	*	*	*	*F:	*	*	*	*	*	*	*F:	*	*	*	*	*	*
*M3/2	*	*	*	*	*	*	*M3/2	*	*	*	*	*	*	*M3/2	*	*	*	*	*	*	*M3/2	*	*	*	*	*	*
=1	=1	=1	=1	=1	=1	=1	=1	=1	=1	=1	=1	=1	=1	=1	=1	=1	=1	=1	=1	=1	=1	=1	=1	=1	=1	=1	=1
*2\right	*	*	*	*	*	*	*2\right	*	*	*	*	*	*	*2\right	*	*	*	*	*	*	*2\right	*	*	*	*	*	*
!LO:TX:a:t=De S(an)ctis Angelis.	!	!	!	!	!	!	!LO:TX:a:t=De S(an)ctis Angelis.	!	!	!	!	!	!	!LO:TX:a:t=De S(an)ctis Angelis.	!	!	!	!	!	!	!LO:TX:a:t=De S(an)ctis Angelis.	!	!	!	!	!	!
2F\	1. Chri-	2. An-	3. An-	4. An-	5. Vir-	6. Prae-	2A\	1. Chri-	2. An-	3. An-	4. An-	5. Vir-	6. Prae-	2f\	1. Chri-	2. An-	3. An-	4. An-	5. Vir-	6. Prae-	2cc\	1. Chri-	2. An-	3. An-	4. An-	5. Vir-	6. Prae-
2A\	-ste	-ge-	-ge-	-ge-	-go	-stet	2c\	-ste	-ge-	-ge-	-ge-	-go	-stet	2f\	-ste	-ge-	-ge-	-ge-	-go	-stet	2cc\	-ste	-ge-	-ge-	-ge-	-go	-stet
2B-\	San-	-lus	-lus	-lus	Dux	hoc	2B-\	San-	-lus	-lus	-lus	dux	hoc	2f\	San-	-lus	-lus	-lus	Dux	hoc	2dd\	San-	-lus	-lus	-lus	Dux	hoc
=2	=2	=2	=2	=2	=2	=2	=2	=2	=2	=2	=2	=2	=2	=2	=2	=2	=2	=2	=2	=2	=2	=2	=2	=2	=2	=2	=2
1G	-cto-	Pa-	For-	no-	Pa-	no-	(2d\	-cto-	Pa-	For-	no-	Pa-	no-	(2f\	-cto-	Pa-	For-	no-	Pa-	no-	1b-X	-cto-	Pa-	For-	no-	Pa-	no-
.	.	.	.	.	.	.	2B-\)	.	.	.	.	.	.	2e\)	.	.	.	.	.	.	.	.	.	.	.	.	.
2F\	-rum	-cis	-tis	-strae	-cis	-bis	2c\	-rum	-cis	-tis	-strae	-cis	-bis	2c/	-rum	-cis	-tis	-strae	-cis	-bis	2a\	-rum	-cis	-tis	-strae	-cis	-bis
=3	=3	=3	=3	=3	=3	=3	=3	=3	=3	=3	=3	=3	=3	=3	=3	=3	=3	=3	=3	=3	=3	=3	=3	=3	=3	=3	=3
2.D/	de-	Mi-	Ga-	Me-	Ge-	De-	2.F/	de-	Mi-	Ga-	Me-	Ge-	De-	2.d\	de-	Mi-	Ga-	Me-	Ge-	De-	2.bn\	de-	Mi-	Ga-	me-	Ge-	De-
4D/	-cus	-cha-	-bri-	-di-	-ni-	-i-	4F/	-cus	-cha-	-bri-	-di-	-ni-	-i-	4d\	-cus	-chà-	-bri-	-di-	-ni-	-i-	4b\	-cus	-cha-	-bri-	-di-	-ni-	-i-
2C/	An-	-el,	-el	-cus	-trix-	-tas	2G/	an-	-el	-el	-cus	-trix-	-tas	2e\	an-	-él	-el	-cus	-trix-	-tas	2cc\	an-	-el	-el	-cus	-trix-	-tas
=4	=4	=4	=4	=4	=4	=4	=4	=4	=4	=4	=4	=4	=4	=4	=4	=4	=4	=4	=4	=4	=4	=4	=4	=4	=4	=4	=4
2F\	-ge-	in	ut	Sa-	-q(ue)	be-	2A/	-ge-	in	ut	sa-	-que	be-	4f\	-ge-	in	ut	Sa-	-que	be-	2cc\	-ge-	in	ut	Sa-	-q(ue)	be-
.	.	.	.	.	.	.	.	.	.	.	.	.	.	4e\	.	.	.	.	.	.	.	.	.	.	.	.	.
2G\	-lo-	ae-	ho-	-lu-	Lu-	-a-	1G	-lo-	ae-	ho-	-lu-	Lu-	-a-	1dT	-lo-	ae-	ho-	-lu-	Lu-	-a-	(2cc\	-lo-	ae-	ho-	-lu-	Lu-	-a-
2GG/	.	.	.	.	.	.	.	.	.	.	.	.	.	.	.	.	.	.	.	.	2bn\)	.	.	.	.	.	.
=5	=5	=5	=5	=5	=5	=5	=5	=5	=5	=5	=5	=5	=5	=5	=5	=5	=5	=5	=5	=5	=5	=5	=5	=5	=5	=5	=5
1.C	-rum:	-des	-stes	-tis	-cis,	-ta	1.G	-rum,	-des	-stes	-tis,	-cis,	-ta	1.e	-rum,	-des	-stes	-tis	-cis,	-ta	1.cc	-rum.	-des	-stes	-tis	-cis,	-ta
=6	=6	=6	=6	=6	=6	=6	=6	=6	=6	=6	=6	=6	=6	=6	=6	=6	=6	=6	=6	=6	=6	=6	=6	=6	=6	=6	=6
!	!	!	!	!	!	!	!	!	!	!	!	!	!	!LO:TX:a:t=1.	!	!	!	!	!	!	!	!	!	!	!	!	!
1.rA	.	.	.	.	.	.	1.rA	.	.	.	.	.	.	1.rg	.	.	.	.	.	.	2g/	Gen-	Cae-	pel-	ad-	et	Pa-
.	.	.	.	.	.	.	.	.	.	.	.	.	.	.	.	.	.	.	.	.	2g/	-tis	-li-	-lat	-sit	sa-	-tris
.	.	.	.	.	.	.	.	.	.	.	.	.	.	.	.	.	.	.	.	.	2g/	hu-	-tùs	an-	è	-cer	ac
=7	=7	=7	=7	=7	=7	=7	=7	=7	=7	=7	=7	=7	=7	=7	=7	=7	=7	=7	=7	=7	=7	=7	=7	=7	=7	=7	=7
2C/	Gen-	Cae-	pel-	ad-	et	Pa-	2G/	Gen-	Cae-	pel-	ad-	et	Pa-	2e\	Gen-	Cae-	pel-	ad-	et	Pa-	2cc\	-ma-	no-	-ti-	Cae-	no-	Na-
2C/	-tis	-li-	-lat	-sit	sa-	-tris	2G/	-tis	-li-	-lat	-sit	sa-	-tris	2e\	-tis	-li-	-lat	-sit	sa-	-tris	2cc,<\	-nae	-stras	-quos	-lo	-bis	-ti
*	*	*	*	*	*	*	*	*	*	*	*	*	*	*	*	*	*	*	*	*	*	*	*	*ij	*	*	*
2C/	hu-	-tùs	an-	è	-cer	ac	2G/	hu-	-tùs	an-	è	-cer	ac	2e\	hu-	-tùs	an-	è	-cer	ac	2cc\	hu-	no-	an-	è	sa-	ac
=8	=8	=8	=8	=8	=8	=8	=8	=8	=8	=8	=8	=8	=8	=8	=8	=8	=8	=8	=8	=8	=8	=8	=8	=8	=8	=8	=8
(2.G\	-ma-	no-	-ti-	Cae-	no-	Na-	1G	-ma-	no-	-ti-	Cae-	no-	Na-	1d	-ma-	no-	-ti-	Cae-	no-	Na-	1bn	-ma-	.	-ti-	Cae-	.	Na-
4F\)	.	.	.	.	.	.	.	.	.	.	.	.	.	.	.	.	.	.	.	.	.	.	.	.	.	.	.
2E\	-nae	-stras	-quos,	-lo	-bis	-ti	2G/	-nae	-stras	-quos	-lo	-bis	-ti	2e\	-nae	-stras	-quos	-lo	-bis	-ti	2cc\	-nae	-stras	-quos	-lo	-cer	-ti
*	*	*	*	*	*	*	*	*	*	*	*	*	*	*	*	*	*	*	*	*	*	*	*	*Xij	*	*	*
=9	=9	=9	=9	=9	=9	=9	=9	=9	=9	=9	=9	=9	=9	=9	=9	=9	=9	=9	=9	=9	=9	=9	=9	=9	=9	=9	=9
2A\	Sa-	ve-	et	Ra-	Cho-	pa-	2A/	Sa-	ve-	et	Ra-	Cho-	pa-	2e\	Sa-	Ve-	et	Ra-	Cho-	pa-	2cc\	Sa-	ve-	et	Ra-	Cho-	pa-
2E\	-tor	-ni-	a-	-phà-	-rus	-ri-	2G#X/	-tor	-ni-	a-	-phà-	-rus	-ri-	2e\	-tor	-ni-	a-	-phà-	-rus	-ri-	2bn\	-tor	-ni-	a-	-phà-	-rus	-ri-
2A\	et	-at,	-mi-	-él	An-	-ter-	2A/	et	-at	-mi-	-él	an-	-ter-	2e\	et	-at	-mi-	-él	an-	-ter-	2cc\	et	-at	-mi-	-él	an-	-ter-
=10	=10	=10	=10	=10	=10	=10	=10	=10	=10	=10	=10	=10	=10	=10	=10	=10	=10	=10	=10	=10	=10	=10	=10	=10	=10	=10	=10
2D\	Re-	se-	-ca	ut	-ge-	-que	(4Bn\	Re-	se-	-ca	ut	-ge-	-que	2f\	Re-	se-	-ca	ut	-ge-	-que	4dd\	Re-	se-	-ca	ut	-ge-	-q(ue)
.	.	.	.	.	.	.	4A\)	.	.	.	.	.	.	.	.	.	.	.	.	.	4cc\	.	.	.	.	.	.
1E	-dem-	-re-	Cae-	om-	-lo-	San-	2A/	-dem-	-re-	cae-	om-	-lo-	San-	1e	-dem-	-re-	cae-	om-	-lo-	San-	1bn	-dem-	-re-	Cae-	om-	-lo-	San-
.	.	.	.	.	.	.	2G#X/	.	.	.	.	.	.	.	.	.	.	.	.	.	.	.	.	.	.	.	.
=11	=11	=11	=11	=11	=11	=11	=11	=11	=11	=11	=11	=11	=11	=11	=11	=11	=11	=11	=11	=11	=11	=11	=11	=11	=11	=11	=11
1.AA	-ptor;	-nae	-lo	-nes	-rum,	-cti	1.A	-ptor,	-nae	-lo,	-nes,	-rum	-cti	1.e	-ptor,	-nae	-lo,	-nes	-rum	-cti	1.cc#X	-ptor,	-nae	-lo,	-nes	-rum	-cti
!LO:LB:g=original	!	!	!	!	!	!	!LO:LB:g=original	!	!	!	!	!	!	!LO:LB:g=original	!	!	!	!	!	!	!LO:LB:g=original	!	!	!	!	!	!
=12	=12	=12	=12	=12	=12	=12	=12	=12	=12	=12	=12	=12	=12	=12	=12	=12	=12	=12	=12	=12	=12	=12	=12	=12	=12	=12	=12
2.F\	1 Cae-	2 Au-	3 quae	4 sa-	5 sem-	6 Spi-	2.c\	Cae-	Au-	quae	sa-	sem-	Spi-	2.f\	Cae-	Au-	quae	sa-	sem-	Spi-	2.a\	Cae-	Au-	quae	sa-	sem-	Spi-
4C/	-li-	-thor	Tri-	net	per	-ri-	4c\	-li-	-thor	Tri-	net	per	-ri-	4e\	-li-	-thor	Tri-	net	per	-ri-	4g\	-li-	-thor	Tri-	net	per	-ri-
2F\	-tum	ut	-úm-	ae-	aſ-	-tus	2c\	-tum	ut	-um-	ae-	aſ-	-tus	2f\	-tum	ut	-um-	ae-	aſ-	-tus	2a\	-tum	ut	-um-	ae-	aſ-	-tus
=13	=13	=13	=13	=13	=13	=13	=13	=13	=13	=13	=13	=13	=13	=13	=13	=13	=13	=13	=13	=13	=13	=13	=13	=13	=13	=13	=13
1F	no-	Pa-	-pha-	-gro-	-si-	Cu-	(2c\	no-	Pa-	-pha-	-gro-	-si-	Cu-	2f\	no-	Pa-	-pha-	-gro-	-si-	Cu-	(2a\	no-	Pa-	-pha-	-gro-	-si-	Cu-
.	.	.	.	.	.	.	2d\)	.	.	.	.	.	.	1g	-bis	-cis la-	-tor	-tos	-stat	-jus	2bn\)	.	-cis	.	.	.	.
2E\	-bis	-cis	-tor	-tos	-stat	-jus	2e\	-bis	-cis	-tor	-tos	-stat	-jus	.	.	.	.	.	.	.	2cc\	-bis	la-	-tor	-tos	-stat	-jus
=14	=14	=14	=14	=14	=14	=14	=14	=14	=14	=14	=14	=14	=14	=14	=14	=14	=14	=14	=14	=14	=14	=14	=14	=14	=14	=14	=14
2.A\	tri-	la-	sta-	du-	si-	re-	2.f\	tri-	la-	sta-	du-	si-	re-	2.f\	tri-	-chry-	sta-	du-	si-	re-	2.cc\	tri-	-chry-	ſta-	du-	si-	re-
4A\	-bu-	-chry-	-tu-	-bi-	-mul	-so-	4e\	-bu-	-chry-	-tu-	-bi-	-mul	-so-	4f\	-bu-	-mo-	-tu-	-bi-	-mul	-ſo-	4cc\	-bu-	-mo-	-tu-	-bi-	-mul	-so-
2B-\	-as	-mo-	-it	-os-	et	-nat	2d\	-as	-mo-	-it	-os-	et	-nat	2f\	-as	-sa	-it	-os-	et	-nat	2dd\	-as	-sa	-it	-os-	et	-nat
=15	=15	=15	=15	=15	=15	=15	=15	=15	=15	=15	=15	=15	=15	=15	=15	=15	=15	=15	=15	=15	=15	=15	=15	=15	=15	=15	=15
2G\	be-	-sa	per	-q(ue)	mi-	per	2d\	be-	-sa	per	-que	mi-	per	2e\	be-	in	per	-q(ue)	mi-	per	2b-X\	be-	in	per	-q(ue)	mi-	per
2A\	-a-	in	Or-	Vi-	-can-	o-	2d\	-a-	in	or-	Vi-	-can-	om-	1e	-a-	or-	or-	vi-	-can-	om-	1a	-a-	Or-	Or-	Vi-	-can-	om-
2AA/	.	Or-	.	.	.	.	2c#X\	.	or-	.	.	.	.	.	.	.	.	.	.	.	.	.	.	.	.	.	.
=16	=16	=16	=16	=16	=16	=16	=16	=16	=16	=16	=16	=16	=16	=16	=16	=16	=16	=16	=16	=16	=16	=16	=16	=16	=16	=16	=16
1.D	-tas	-cum	-bem.	-tae,	-tis	-mnem	1.d	-tas	-cum	-bem	-tae	-tis	-nem,	1.f	-tas	-cum	-bem	-tae	-tis	-nem	1.a	-tas	-cum,	-bem	-tae	-tis	-nem
=17	=17	=17	=17	=17	=17	=17	=17	=17	=17	=17	=17	=17	=17	=17	=17	=17	=17	=17	=17	=17	=17	=17	=17	=17	=17	=17	=17
!LO:TX:a:t=3.	!	!	!	!	!	!	!	!	!	!	!	!	!	!	!	!	!	!	!	!	!	!	!	!	!	!	!
0.r	.	.	.	.	.	.	0.r	.	.	.	.	.	.	1.rg	.	.	.	.	.	.	4.f/	scan-	bel-	Tem-	di-	Re-	glo-
.	.	.	.	.	.	.	.	.	.	.	.	.	.	.	.	.	.	.	.	.	8g/	.	.	.	.	.	.
.	.	.	.	.	.	.	.	.	.	.	.	.	.	.	.	.	.	.	.	.	4a/	.	.	.	.	.	.
.	.	.	.	.	.	.	.	.	.	.	.	.	.	.	.	.	.	.	.	.	4g/	.	.	.	.	.	.
.	.	.	.	.	.	.	.	.	.	.	.	.	.	.	.	.	.	.	.	.	4a/	.	.	.	.	.	.
.	.	.	.	.	.	.	.	.	.	.	.	.	.	.	.	.	.	.	.	.	4f/	.	.	.	.	.	.
=18-	=18-	=18-	=18-	=18-	=18-	=18-	=18-	=18-	=18-	=18-	=18-	=18-	=18-	=18	=18	=18	=18	=18	=18	=18	=18	=18	=18	=18	=18	=18	=18
.	.	.	.	.	.	.	.	.	.	.	.	.	.	4.c/	scan-	bel-	Tem-	di-	Re-	glo-	2.cc\	.	.	.	.	.	.
.	.	.	.	.	.	.	.	.	.	.	.	.	.	8d/	.	.	.	.	.	.	.	.	.	.	.	.	.
.	.	.	.	.	.	.	.	.	.	.	.	.	.	4e/	.	.	.	.	.	.	.	.	.	.	.	.	.
.	.	.	.	.	.	.	.	.	.	.	.	.	.	4d/	.	.	.	.	.	.	4cc\	-de-	.	.	ri-	gi-	-ri-
.	.	.	.	.	.	.	.	.	.	.	.	.	.	4e/	.	.	.	.	.	.	2cc\	-re	-la	-pla	-gat	-a	-a
.	.	.	.	.	.	.	.	.	.	.	.	.	.	4c/	.	.	.	.	.	.	.	.	.	.	.	.	.
=19-	=19-	=19-	=19-	=19-	=19-	=19-	=19	=19	=19	=19	=19	=19	=19	=19	=19	=19	=19	=19	=19	=19	=19	=19	=19	=19	=19	=19	=19
1.r	.	.	.	.	.	.	4.F/	scan-	bel-	Tem-	di-	Re-	glo-	2.f\	.	.	.	.	.	.	4.a\	scan-	bel-	Tem-	di-	Re-	glo-
.	.	.	.	.	.	.	8G/	.	.	.	.	.	.	.	.	.	.	.	.	.	8b-\	.	.	.	.	.	.
.	.	.	.	.	.	.	4A/	.	.	.	.	.	.	.	.	.	.	.	.	.	4cc\	.	.	.	.	.	.
.	.	.	.	.	.	.	4G/	.	.	.	.	.	.	4f\	-de-	.	.	-ri-	gi-	ri-	4b-\	.	.	.	.	.	.
.	.	.	.	.	.	.	4A/	.	.	.	.	.	.	2f\	-re	-la	pla	-gat	-a	-a	4cc\	.	.	.	.	.	.
.	.	.	.	.	.	.	4F/	.	.	.	.	.	.	.	.	.	.	.	.	.	4a\	.	.	.	.	.	.
=20	=20	=20	=20	=20	=20	=20	=20	=20	=20	=20	=20	=20	=20	=20	=20	=20	=20	=20	=20	=20	=20	=20	=20	=20	=20	=20	=20
4.C/	scan-	bel-	Tem-	di-	re-	glo-	2.c\	.	.	.	.	.	.	4.e\	scan-	bel-	Tem-	di-	re-	glo-	2.g/	.	.	.	.	.	.
8D/	.	.	.	.	.	.	.	.	.	.	.	.	.	8f\	.	.	.	.	.	.	.	.	.	.	.	.	.
4E/	.	.	.	.	.	.	.	.	.	.	.	.	.	4g\	.	.	.	.	.	.	.	.	.	.	.	.	.
4D/	.	.	.	.	.	.	4c\	-de-	.	.	-ri-	gi-	ri-	4f\	.	.	.	.	.	.	4g/	-de-	.	.	-ri-	gi-	ri-
4E/	.	.	.	.	.	.	2c\	-re	-la	pla	-gat	-a	-a	4g\	.	.	.	.	.	.	2g/	-re	-la	pla	-gat	-a	-a
4C/	.	.	.	.	.	.	.	.	.	.	.	.	.	4e\	.	.	.	.	.	.	.	.	.	.	.	.	.
=21	=21	=21	=21	=21	=21	=21	=21	=21	=21	=21	=21	=21	=21	=21	=21	=21	=21	=21	=21	=21	=21	=21	=21	=21	=21	=21	=21
*	*	*	*	*	*	*	*	*ij	*ij	*ij	*ij	*ij	*ij	*	*	*	*	*	*	*	*	*ij	*	*ij	*	*ij	*
2.F\	.	.	.	.	.	.	2.c\	scan-	bel-	Tem-	di-	Re-	glo-	2.f\	.	.	.	.	.	.	2.a\	scan-	bel-	Tem-	di-	Re-	glo-
4F\	-de-	.	.	-ri-	gi-	ri-	4c\	-de-	.	.	-ri-	-gi-	-ri-	4f\	-de-	.	.	-ri-	-gi-	-ri-	4a\	-de-	.	.	-ri-	-gi-	-ri-
2F\	-re	-la	pla	-gat	-a	-a	2c\	-re	-la	-pla	-gat	-a	-a	2f\	-re	-la	-pla	-gat	-a	-a	2a\	-re	-la	-pla	-gat	-a	-a
*	*	*	*	*	*	*	*	*Xij	*Xij	*Xij	*Xij	*Xij	*Xij	*	*	*	*	*	*	*	*	*Xij	*	*Xij	*	*Xij	*
=22	=22	=22	=22	=22	=22	=22	=22	=22	=22	=22	=22	=22	=22	=22	=22	=22	=22	=22	=22	=22	=22	=22	=22	=22	=22	=22	=22
*	*ij	*ij	*ij	*ij	*ij	*ij	*	*	*	*	*	*	*	*	*ij	*ij	*ij	*ij	*ij	*ij	*	*	*ij	*	*ij	*	*ij
2.F\	scan-	bel-	Tem-	di-	re-	glo-	2.d\	scan-	bel-	tem-	di-	Re-	glo-	2.g\	scan-	bel-	Tem-	di-	Re-	glo-	2.bn\	scan-	bel-	Tem-	di-	Re-	glo-
4F\	-de-	.	.	-ri-	-gi-	-ri-	4d\	-de-	.	.	-ri-	-gi-	-ri-	4g\	-de-	.	.	-ri-	-gi-	-ri-	4b\	-de-	.	.	-ri-	-gi-	-ri-
*	*	*	*	*	*	*	*	*	*	*	*	*	*	*custos:f	*	*	*	*	*	*	*custos:bn	*	*	*	*	*	*
2E\	-re	-la	-pla	-gat	-a	-a	2e\	-re	-la	-pla	-gat	-a	-a	2g\	-re	-la	-pla	-gat	-a	-a	2cc\	-re	-la	-pla	-gat	-a	-a
*	*Xij	*Xij	*Xij	*Xij	*Xij	*Xij	*	*	*	*	*	*	*	*	*Xij	*Xij	*Xij	*Xij	*Xij	*Xij	*	*	*Xij	*	*Xij	*	*Xij
!	!	!	!	!	!	!	!	!	!	!	!	!	!	!LO:LB:g=original	!	!	!	!	!	!	!LO:LB:g=original	!	!	!	!	!	!
=23	=23	=23	=23	=23	=23	=23	=23	=23	=23	=23	=23	=23	=23	=23	=23	=23	=23	=23	=23	=23	=23	=23	=23	=23	=23	=23	=23
2D/	se-	re-	re-	a-	Cae-	mun-	2F/	se-	re-	re-	a-	Cae-	mun-	2f\	se-	re-	re-	A-	Cae-	mun-	2bn\	se-	re-	re-	A-	Cae-	mun-
2C/	.	.	.	.	.	.	1G	.	-le-	-vi-	.	.	.	2e\	.	-le-	-vi-	.	.	.	2cc\	.	-le-	-vi-	.	.	.
2G\	.	-le-	-vi-	.	.	.	.	.	.	.	.	.	.	2d\	.	.	.	.	.	.	2b\	.	.	.	.	.	.
=24	=24	=24	=24	=24	=24	=24	=24	=24	=24	=24	=24	=24	=24	=24	=24	=24	=24	=24	=24	=24	=24	=24	=24	=24	=24	=24	=24
1.C	-des,	-get,	-sat;	-ctus,	-li.	-dum	1.G	-des,	-get	-ſat,	-ctus	-li,	-dum	1.e,	-des,	-get,	-sat,	-ctus,	-li.	-dum.	1.cc	-des	-get;	-sat,	-ctus.	-li	-dum,
!LO:LB:g=original	!	!	!	!	!	!	!	!	!	!	!	!	!	!	!	!	!	!	!	!	!	!	!	!	!	!	!
=25	=25	=25	=25	=25	=25	=25	=25	=25	=25	=25	=25	=25	=25	=25	=25	=25	=25	=25	=25	=25	=25	=25	=25	=25	=25	=25	=25
1.rA	.	.	.	.	.	.	1.re	.	.	.	.	.	.	(4.c\	scan-	bel-	Tem-	di-	re-	Glo-	1.rdd	.	.	.	.	.	.
.	.	.	.	.	.	.	.	.	.	.	.	.	.	8d\	.	.	.	.	.	.	.	.	.	.	.	.	.
.	.	.	.	.	.	.	.	.	.	.	.	.	.	4e\	.	.	.	.	.	.	.	.	.	.	.	.	.
.	.	.	.	.	.	.	.	.	.	.	.	.	.	4d\)	.	.	.	.	.	.	.	.	.	.	.	.	.
.	.	.	.	.	.	.	.	.	.	.	.	.	.	4e\	.	.	.	.	.	.	.	.	.	.	.	.	.
.	.	.	.	.	.	.	.	.	.	.	.	.	.	4c\	.	.	.	.	.	.	.	.	.	.	.	.	.
=26	=26	=26	=26	=26	=26	=26	=26	=26	=26	=26	=26	=26	=26	=26	=26	=26	=26	=26	=26	=26	=26	=26	=26	=26	=26	=26	=26
4.F\	1 scan-	2 bel-	3. Tem-	4. di-	5. re-	6. glo-	4.A\	scan-	bel-	Tem-	di-	Re-	glo-	1.f	.	.	.	.	.	.	[<1.ccT	scan-	bel-	Tem-	di-	Re-	glo-
8G\	.	.	.	.	.	.	8B-\	.	.	.	.	.	.	.	.	.	.	.	.	.	.	.	.	.	.	.	.
4A\	.	.	.	.	.	.	4c\	.	.	.	.	.	.	.	.	.	.	.	.	.	.	.	.	.	.	.	.
4G\	.	.	.	.	.	.	4B-\	.	.	.	.	.	.	.	.	.	.	.	.	.	.	.	.	.	.	.	.
4A\	.	.	.	.	.	.	4c\	.	.	.	.	.	.	.	.	.	.	.	.	.	.	.	.	.	.	.	.
4F\	.	.	.	.	.	.	4A\	.	.	.	.	.	.	.	.	.	.	.	.	.	.	.	.	.	.	.	.
=27	=27	=27	=27	=27	=27	=27	=27	=27	=27	=27	=27	=27	=27	=27	=27	=27	=27	=27	=27	=27	=27	=27	=27	=27	=27	=27	=27
2.c\	.	.	.	.	.	.	[1.G	.	.	.	.	.	.	[<1.e	.	.	.	.	.	.	1.cc_<	.	.	.	.	.	.
4c\	-de-	.	.	ri-	-gi-	-ri-	.	.	.	.	.	.	.	.	.	.	.	.	.	.	.	.	.	.	.	.	.
2c\	-re	la	-pla	-gat	-a	-a	.	.	.	.	.	.	.	.	.	.	.	.	.	.	.	.	.	.	.	.	.
=28	=28	=28	=28	=28	=28	=28	=28-	=28-	=28-	=28-	=28-	=28-	=28-	=28	=28	=28	=28	=28	=28	=28	=28	=28	=28	=28	=28	=28	=28
(4.B-X\	scan-	bel-	tem-	di-	Re-	glo-	2.G/]	.	.	.	.	.	.	2.e\]	.	.	.	.	.	.	2.cc\]	.	.	.	.	.	.
8c\)	.	.	.	.	.	.	.	.	.	.	.	.	.	.	.	.	.	.	.	.	.	.	.	.	.	.	.
(4.B-\	.	.	.	.	.	.	.	.	.	.	.	.	.	.	.	.	.	.	.	.	.	.	.	.	.	.	.
.	.	.	.	.	.	.	4G/	-de-	.	.	ri-	-gi-	-ri-	4e\	-de-	.	.	ri-	-gi-	-ri-	4cc\	-de-	.	.	ri-	-gi-	-ri-
8c\)	.	.	.	.	.	.	.	.	.	.	.	.	.	.	.	.	.	.	.	.	.	.	.	.	.	.	.
(4.B-\	.	.	.	.	.	.	2G/	-re	la	-pla	-gat	-a	-a	2e\	-re	la	-pla	-gat	-a	-a	2cc\	-re	la	-pla	-gat	-a	-a
8c\)	.	.	.	.	.	.	.	.	.	.	.	.	.	.	.	.	.	.	.	.	.	.	.	.	.	.	.
=29	=29	=29	=29	=29	=29	=29	=29	=29	=29	=29	=29	=29	=29	=29	=29	=29	=29	=29	=29	=29	=29	=29	=29	=29	=29	=29	=29
(2A\	.	.	.	.	.	.	2A/	scan-	bel-	Tem-	di-	Re-	glo-	2f\	scan-	bel-	Tem-	di-	Re-	glo-	2cc\	scan-	bel-	Tem-	di-	Re-	glo-
2B-\)	.	.	.	.	.	.	2F/	.	.	.	.	.	.	(2d\	.	.	.	.	.	.	2dd\	.	.	.	.	.	.
2G\	.	.	.	.	.	.	2B-\	.	.	.	.	.	.	2e\)	.	.	.	.	.	.	2b-X\	.	.	.	.	.	.
=30	=30	=30	=30	=30	=30	=30	=30	=30	=30	=30	=30	=30	=30	=30	=30	=30	=30	=30	=30	=30	=30	=30	=30	=30	=30	=30	=30
2.F\	.	.	.	.	.	.	2.c\	.	.	.	.	.	.	2.f\	.	.	.	.	.	.	2.a\	.	.	.	.	.	.
4G\	-de-	.	.	ri-	-gi-	-ri-	4B-\	-de-	.	.	ri-	-gi-	-ri-	4e\	-de-	.	.	-ri-	gi-	-ri-	4b-\	-de-	.	.	-ri-	gi-	-ri-
2A\	-re	la	-pla	-gat	-a	-a	2A\	-re	la	-pla	-gat	-a	-a	2f\	-re	-la	-pla	-gat	-a	-a	2cc\	-re	-la	-pla	-gat	-a	-a
=31	=31	=31	=31	=31	=31	=31	=31	=31	=31	=31	=31	=31	=31	=31	=31	=31	=31	=31	=31	=31	=31	=31	=31	=31	=31	=31	=31
2B-\	se-	re-	re-	a-	Cae-	mun-	2d\	se-	re-	re-	a-	Cae-	mun-	1f	se-	re-	re-	a-	Cae-	mun-	4b-\	se-	re-	re-	.	.	.
.	.	.	.	.	.	.	.	.	.	.	.	.	.	.	.	.	.	.	.	.	4a\	.	.	.	.	.	.
2c\	.	-le-	-vi-	.	.	.	1c	.	-le-	-vi-	.	.	.	.	.	.	.	.	.	.	1g	.	-le-	-vi-	a-	Cae-	mun-
2C/	.	.	.	.	.	.	.	.	.	.	.	.	.	2e\	.	-le-	-vi-	.	.	.	.	.	.	.	.	.	.
=32	=32	=32	=32	=32	=32	=32	=32	=32	=32	=32	=32	=32	=32	=32	=32	=32	=32	=32	=32	=32	=32	=32	=32	=32	=32	=32	=32
2F;,\	-des.	-get.	-ſat.	-ctus.	-li.	-dum.	2c;,\	-des.	-get.	-ſat.	-ctus.	-li.	-dum.	2f;,\	-des.	-get.	-ſat.	-ctus.	-li.	-dum.	2a;,\	-des.	-get.	-ſat.	-ctus.	-li.	-dum.
2F\	.	.	.	.	.	A-	2c\	.	.	.	.	.	A-	2f\	.	.	.	.	.	A-	2a\	.	.	.	.	.	A-
2F\	.	.	.	.	.	men	2c\	.	.	.	.	.	men	2f\	.	.	.	.	.	-men,	2a\	.	.	.	.	.	-men,
=33	=33	=33	=33	=33	=33	=33	=33	=33	=33	=33	=33	=33	=33	=33	=33	=33	=33	=33	=33	=33	=33	=33	=33	=33	=33	=33	=33
1.BB-	.	.	.	.	.	A-	1.d	.	.	.	.	.	A-	1f	.	.	.	.	.	A-	(1f	.	.	.	.	.	A-
.	.	.	.	.	.	.	.	.	.	.	.	.	.	2d\	.	.	.	.	.	.	2g/)	.	.	.	.	.	.
=34	=34	=34	=34	=34	=34	=34	=34	=34	=34	=34	=34	=34	=34	=34	=34	=34	=34	=34	=34	=34	=34	=34	=34	=34	=34	=34	=34
1.Fl;	.	.	.	.	.	-men	1.cl;	.	.	.	.	.	-men.	1.fl;	.	.	.	.	.	-men.	1.al;	.	.	.	.	.	-men.
==	==	==	==	==	==	==	==	==	==	==	==	==	==	==	==	==	==	==	==	==	==	==	==	==	==	==	==
*-	*-	*-	*-	*-	*-	*-	*-	*-	*-	*-	*-	*-	*-	*-	*-	*-	*-	*-	*-	*-	*-	*-	*-	*-	*-	*-	*-
!!!system-decoration: [g1]
!!!RDF**kern: > = above
!!!RDF**kern: < = below
!!!RDF**kern: l = terminal long
!!!ENC: Andrzej Kubiczek
!!!END: 2021-03-10
!!!ENC: Krzysztof Stępień
!!!END: 2021-03-04
!!!YEC: Copyright 2022 Narodowy Instytut Fryderyka Chopina (https://polishscores.org)
!!!YEM: License CC-BY-4.0 (https://creativecommons.org/licenses/by/4.0)
